public/svgs/twin/select-border.svg

<svg xmlns="http://www.w3.org/2000/svg" fill="none" viewBox="0 0 66 66"><path stroke="current" stroke-width="2" d="M65 57v8h-8m8-56V1h-8M9 1H1v8m0 48v8h8"/></svg>

<svg width="100%" height="100%" viewBox="0 0 66 66" fill="none" xmlns="http://www.w3.org/2000/svg">
<path d="M65 57V65H57M65 9V1H57M9 1H1V9M1 57V65H9" stroke="current" stroke-width="2"/>
</svg>
